X:10015
T:Jack's Maggot
R:March
C:Trad. Playford
O:England
Z:Paul Hardy's Session Tunebook 2015 (see www.paulhardy.net). Creative Commons cc by-nc-sa licenced.
M:2/2
L:1/8
Q:1/2=80
K:D
dc|"D"d2D2 F2A2|"G"BABc "A"d2e2|"D"fga2 "G"Bcd2|"Em"e3f "A"e2c2|"D"d2D2 F2A2|"G"Bcd2 "A"c2ag|"D"f2d2 "A"e2c2|"D"d4- d2:|
|:fg|"D"a2 f2-f2 a2|"Bm"f2 d2-d2 ef|"Em"gfed c2 d2|"A"e6 fg|"D"a2f2 d2 f2|"Bm"A2d2 F2A2|"D"d3e "A7"e3d|"D"d6:|

